src/icons/svg/folder.svg

<svg class="icon" width="200px" height="200.00px" viewBox="0 0 1024 1024" version="1.1" xmlns="http://www.w3.org/2000/svg"><path  d="M460.650667 192a64 64 0 0 1 62.485333 50.133333l3.093333 13.866667H789.333333a64 64 0 0 1 64 64v448a64 64 0 0 1-64 64H234.666667a64 64 0 0 1-64-64V256a64 64 0 0 1 64-64h225.984z m0 64H234.666667v512h554.666666V426.666667H498.602667l-37.952-170.666667zM746.666667 640v64H277.333333v-64h469.333334z m42.666666-320H540.437333l9.493334 42.666667H789.333333v-42.666667z" /></svg>

<svg  xmlns="http://www.w3.org/2000/svg" viewBox="0 0 1024 1024"><path  d="M460.65 192a64 64 0 0 1 62.486 50.133L526.229 256h263.104a64 64 0 0 1 64 64v448a64 64 0 0 1-64 64H234.667a64 64 0 0 1-64-64V256a64 64 0 0 1 64-64H460.65zm0 64H234.668v512h554.666V426.667h-290.73L460.65 256zm286.017 384v64H277.333v-64h469.334zm42.666-320H540.437l9.494 42.667h239.402V320z"/></svg>
